X:540
T: RITI RITI RESSLAE
N: E1818
O: Europa, Mitteleuropa, Deutschland; Frankreich, Elsass
R: Kinder -, Wiegen -, Schlaf - Lied
M: 2/4
L: 1/16
K: F
 | c2d2c2d2 | c4A4 |
c2d2c2d2 | c4A4 |
c4c2d2 | c2c2A4 |
c4c2d2 | c2c2A4 |
F2F2C4 | F4F4 |
F2F2C4 | F4F4 |
ccBBAAGG | F4z4

@@@ Tune index: 5224
